icons/computer-monitor-two-color.svg

<?xml version="1.0" encoding="UTF-8"?><svg id="uuid-a703d520-fa2a-4908-8eac-5a6e30dc0c11" xmlns="http://www.w3.org/2000/svg" viewBox="0 0 50 50"><path d="M28.68,37.63h20.74V5.72H3.08v31.91H24.32v6.6H15.37v2.54h21.77v-2.54h-8.95v-6.6h.5ZM5.34,31.16V8.04H44.16V31.16H5.34Z" fill="#ffcd00"/><g><path d="M48.35,3.22H1.15c-.32,0-.57,.26-.57,.57V36.56c0,.32,.26,.57,.57,.57H21.82v5.06H13.37c-.28,0-.5,.22-.5,.5v3.08c0,.28,.22,.5,.5,.5h22.77c.28,0,.5-.22,.5-.5v-3.08c0-.28-.22-.5-.5-.5h-8.45v-5.06h20.67c.32,0,.57-.26,.57-.57V3.8c0-.32-.26-.57-.57-.57Zm-12.71,42.06H13.87v-2.08h21.77v2.08Zm-8.95-3.08h-3.86v-5.06h3.86v5.06Zm21.24-6.06H1.58V4.22H47.92v31.91Z"/><path d="M44.66,7.04H4.84c-.28,0-.5,.22-.5,.5V31.66c0,.28,.22,.5,.5,.5H44.66c.28,0,.5-.22,.5-.5V7.54c0-.28-.22-.5-.5-.5Zm-.5,24.13H5.34V8.04H44.16V31.16Z"/><circle cx="24.75" cy="34.09" r="1.07"/></g></svg>

<svg id="ad12766f-bd4b-499b-a975-1184183da7b8" data-name="ICONS" xmlns="http://www.w3.org/2000/svg" viewBox="0 0 50 50"><path d="M28.68,37.63H49.42V5.72H3.08V37.63H24.32v6.61h-9v2.54H37.13V44.24h-9V37.63ZM5.34,31.16V8H44.16V31.16Z" fill="#fdd600"/><path d="M48.35,3.22H1.15a.57.57,0,0,0-.57.58V36.56a.56.56,0,0,0,.57.57H21.82V42.2H13.37a.5.5,0,0,0-.5.5v3.08a.5.5,0,0,0,.5.5H36.13a.5.5,0,0,0,.5-.5V42.7a.5.5,0,0,0-.5-.5H27.68V37.13H48.35a.57.57,0,0,0,.57-.57V3.8A.58.58,0,0,0,48.35,3.22ZM35.63,45.28H13.87V43.2H35.63Zm-9-3.08H22.82V37.13h3.86Zm21.24-6.07H1.58V4.22H47.92Z" fill="#231f20"/><path d="M44.66,7H4.84a.5.5,0,0,0-.5.5V31.66a.5.5,0,0,0,.5.5H44.66a.5.5,0,0,0,.5-.5V7.54A.5.5,0,0,0,44.66,7Zm-.5,24.12H5.34V8H44.16Z" fill="#231f20"/><circle cx="24.75" cy="34.09" r="1.07" fill="#231f20"/></svg>
